flaticon/files-and-folders/clipboard-26.svg

<svg xmlns="http://www.w3.org/2000/svg" width="32" height="32" viewBox="0 0 24 24">
    <path d="M 18.398438 2.800781 L 16.398438 2.800781 L 16.398438 2.398438 C 16.398438 1.960938 16.039062 1.601562 15.601562 1.601562 L 14.398438 1.601562 L 14.398438 1.199219 C 14.398438 0.519531 13.878906 0 13.199219 0 L 10.800781 0 C 10.121094 0 9.601562 0.558594 9.601562 1.199219 L 9.601562 1.601562 L 8.398438 1.601562 C 7.960938 1.601562 7.601562 1.960938 7.601562 2.398438 L 7.601562 2.800781 L 5.601562 2.800781 C 4.480469 2.800781 3.601562 3.679688 3.601562 4.800781 L 3.601562 22 C 3.601562 23.121094 4.480469 24 5.601562 24 L 18.398438 24 C 19.519531 24 20.398438 23.121094 20.398438 22 L 20.398438 4.800781 C 20.398438 3.679688 19.519531 2.800781 18.398438 2.800781 Z M 8.398438 2.398438 L 10 2.398438 C 10.238281 2.398438 10.398438 2.238281 10.398438 2 L 10.398438 1.199219 C 10.398438 0.960938 10.558594 0.800781 10.800781 0.800781 L 13.199219 0.800781 C 13.441406 0.800781 13.601562 1 13.601562 1.199219 L 13.601562 2 C 13.601562 2.238281 13.761719 2.398438 14 2.398438 L 15.601562 2.398438 L 15.601562 5.199219 L 8.398438 5.199219 Z M 19.601562 22 C 19.601562 22.679688 19.078125 23.199219 18.398438 23.199219 L 5.601562 23.199219 C 4.921875 23.199219 4.398438 22.679688 4.398438 22 L 4.398438 4.800781 C 4.398438 4.121094 4.921875 3.601562 5.601562 3.601562 L 7.601562 3.601562 L 7.601562 5.199219 C 7.601562 5.640625 7.960938 6 8.398438 6 L 15.601562 6 C 16.039062 6 16.398438 5.640625 16.398438 5.199219 L 16.398438 3.601562 L 18.398438 3.601562 C 19.078125 3.601562 19.601562 4.121094 19.601562 4.800781 Z M 19.601562 22"/>
    <path d="M13.199219 19.199219L6.800781 19.199219C6.558594 19.199219 6.398438 19.359375 6.398438 19.601562 6.398438 19.839844 6.558594 20 6.800781 20L13.199219 20C13.441406 20 13.601562 19.839844 13.601562 19.601562 13.601562 19.359375 13.441406 19.199219 13.199219 19.199219zM13.199219 15.601562L6.800781 15.601562C6.558594 15.601562 6.398438 15.761719 6.398438 16 6.398438 16.238281 6.558594 16.398438 6.800781 16.398438L13.199219 16.398438C13.441406 16.398438 13.601562 16.238281 13.601562 16 13.601562 15.761719 13.441406 15.601562 13.199219 15.601562zM13.199219 12L6.800781 12C6.558594 12 6.398438 12.160156 6.398438 12.398438 6.398438 12.640625 6.558594 12.800781 6.800781 12.800781L13.199219 12.800781C13.441406 12.800781 13.601562 12.640625 13.601562 12.398438 13.601562 12.160156 13.441406 12 13.199219 12zM13.199219 8.398438L6.800781 8.398438C6.558594 8.398438 6.398438 8.558594 6.398438 8.800781 6.398438 9.039062 6.558594 9.199219 6.800781 9.199219L13.199219 9.199219C13.441406 9.199219 13.601562 9.039062 13.601562 8.800781 13.601562 8.558594 13.441406 8.398438 13.199219 8.398438zM17.839844 7.28125C17.679688 7.160156 17.398438 7.199219 17.28125 7.359375L15.964844 9.003906 15.480469 8.519531C15.320312 8.359375 15.078125 8.359375 14.921875 8.519531 14.761719 8.679688 14.761719 8.921875 14.921875 9.078125L15.699219 9.859375C15.714844 9.882812 15.738281 9.902344 15.761719 9.921875 15.765625 9.921875 15.769531 9.925781 15.773438 9.925781 15.835938 9.976562 15.90625 10 16 10 16.015625 10 16.03125 10 16.042969 10 16.148438 9.988281 16.25 9.945312 16.320312 9.839844L17.921875 7.839844C18.039062 7.679688 18 7.398438 17.839844 7.28125zM17.839844 10.878906C17.679688 10.761719 17.398438 10.800781 17.28125 10.960938L15.964844 12.605469 15.480469 12.121094C15.320312 11.960938 15.078125 11.960938 14.921875 12.121094 14.761719 12.28125 14.761719 12.519531 14.921875 12.679688L15.699219 13.457031C15.714844 13.480469 15.738281 13.503906 15.761719 13.519531 15.765625 13.523438 15.769531 13.523438 15.773438 13.527344 15.835938 13.574219 15.90625 13.601562 16 13.601562 16.015625 13.601562 16.03125 13.597656 16.042969 13.597656 16.148438 13.589844 16.25 13.546875 16.320312 13.441406L17.921875 11.441406C18.039062 11.28125 18 11 17.839844 10.878906zM17.839844 14.480469C17.679688 14.359375 17.398438 14.398438 17.28125 14.558594L15.964844 16.203125 15.480469 15.71875C15.320312 15.558594 15.078125 15.558594 14.921875 15.71875 14.761719 15.878906 14.761719 16.121094 14.921875 16.28125L15.699219 17.058594C15.714844 17.082031 15.738281 17.101562 15.761719 17.121094 15.765625 17.121094 15.769531 17.125 15.773438 17.125 15.835938 17.175781 15.90625 17.199219 16 17.199219 16.015625 17.199219 16.03125 17.199219 16.042969 17.199219 16.148438 17.1875 16.25 17.144531 16.320312 17.039062L17.921875 15.039062C18.039062 14.878906 18 14.601562 17.839844 14.480469zM17.839844 18.078125C17.679688 17.960938 17.398438 18 17.28125 18.160156L15.964844 19.804688 15.480469 19.320312C15.320312 19.160156 15.078125 19.160156 14.921875 19.320312 14.761719 19.480469 14.761719 19.71875 14.921875 19.878906L15.699219 20.660156C15.714844 20.683594 15.738281 20.703125 15.761719 20.71875 15.765625 20.722656 15.769531 20.722656 15.773438 20.726562 15.835938 20.773438 15.90625 20.800781 16 20.800781 16.015625 20.800781 16.03125 20.800781 16.042969 20.796875 16.148438 20.789062 16.25 20.746094 16.320312 20.640625L17.921875 18.640625C18.039062 18.480469 18 18.199219 17.839844 18.078125zM17.839844 18.078125"/>
</svg>

<svg xmlns="http://www.w3.org/2000/svg" width="32" height="32" viewBox="0 0 24 24">
    <path d="M18.398 2.8h-2v-.402a.8.8 0 0 0-.796-.796h-1.204v-.403C14.398.52 13.878 0 13.2 0h-2.398c-.68 0-1.2.559-1.2 1.2v.402H8.399a.8.8 0 0 0-.796.796v.403h-2c-1.122 0-2 .879-2 2V22c0 1.121.878 2 2 2h12.796c1.122 0 2-.879 2-2V4.8c0-1.12-.878-2-2-2zm-10-.402H10c.238 0 .398-.16.398-.398v-.8c0-.24.16-.4.403-.4h2.398a.4.4 0 0 1 .403.4V2c0 .238.16.398.398.398h1.602V5.2H8.398zM19.602 22c0 .68-.524 1.2-1.204 1.2H5.602A1.18 1.18 0 0 1 4.398 22V4.8c0-.679.524-1.198 1.204-1.198h2v1.597c0 .442.359.801.796.801h7.204c.437 0 .796-.36.796-.8V3.601h2c.68 0 1.204.52 1.204 1.199zm0 0"/>
    <path d="M13.2 19.2H6.8c-.241 0-.402.16-.402.402 0 .238.16.398.403.398h6.398c.242 0 .403-.16.403-.398 0-.243-.16-.403-.403-.403zm0 0M13.2 15.602H6.8c-.241 0-.402.16-.402.398 0 .238.16.398.403.398h6.398c.242 0 .403-.16.403-.398 0-.238-.16-.398-.403-.398zm0 0M13.2 12H6.8c-.241 0-.402.16-.402.398 0 .243.16.403.403.403h6.398c.242 0 .403-.16.403-.403 0-.238-.16-.398-.403-.398zm0 0M13.2 8.398H6.8c-.241 0-.402.16-.402.403 0 .238.16.398.403.398h6.398c.242 0 .403-.16.403-.398 0-.242-.16-.403-.403-.403zm0 0M17.84 7.281c-.16-.12-.442-.082-.559.078l-1.316 1.645-.485-.484a.385.385 0 0 0-.558 0 .385.385 0 0 0 0 .558l.777.781c.016.024.04.043.063.063.004 0 .008.004.011.004.063.05.133.074.227.074h.043a.364.364 0 0 0 .277-.16l1.602-2c.117-.16.078-.442-.082-.559zm0 0M17.84 10.879c-.16-.117-.442-.078-.559.082l-1.316 1.644-.485-.484a.385.385 0 0 0-.558 0 .385.385 0 0 0 0 .559l.777.777c.016.023.04.047.063.063.004.003.008.003.011.007a.359.359 0 0 0 .227.075c.016 0 .031-.004.043-.004a.349.349 0 0 0 .277-.157l1.602-2c.117-.16.078-.441-.082-.562zm0 0M17.84 14.48c-.16-.12-.442-.082-.559.079l-1.316 1.644-.485-.484a.385.385 0 0 0-.558 0 .39.39 0 0 0 0 .562l.777.778c.016.023.04.043.063.062.004 0 .008.004.011.004.063.05.133.074.227.074h.043a.364.364 0 0 0 .277-.16l1.602-2a.432.432 0 0 0-.082-.559zm0 0M17.84 18.078c-.16-.117-.442-.078-.559.082l-1.316 1.645-.485-.485a.385.385 0 0 0-.558 0 .385.385 0 0 0 0 .559l.777.781c.016.024.04.043.063.059.004.004.008.004.011.008A.359.359 0 0 0 16 20.8c.016 0 .031 0 .043-.004a.349.349 0 0 0 .277-.156l1.602-2c.117-.16.078-.442-.082-.563zm0 0"/>
</svg>
